static/logos/replit-glyph-color.svg

<svg width="50" height="51" viewBox="0 0 50 51" fill="none" xmlns="http://www.w3.org/2000/svg">
<g clip-path="url(#clip0_1_1250)">
<path d="M49.8594 22.7199C49.9279 23.4761 49.9752 24.2389 49.9752 25.0134C49.9752 24.2389 49.9279 23.4766 49.8594 22.7199Z" fill="#56676E"/>
<path d="M12.8088 22.588C12.8088 22.588 5.86277 48.1804 33.703 48.4031C42.4379 45.1515 48.8745 37.1793 49.85 27.5679C49.9173 26.9031 49.9374 26.225 49.9524 25.5457C49.9552 25.3669 49.9791 25.1932 49.9791 25.0134C49.9791 24.2394 49.9318 23.4761 49.8633 22.7199C42.5081 51.6748 9.96912 40.3335 12.8088 22.588Z" fill="#56676E"/>
<path d="M27.1987 13.0885C27.1987 13.0885 1.27776 5.84966 1.67643 34.1136C3.00516 37.5291 5.06719 40.6114 7.71707 43.1431C7.82843 43.2483 7.94369 43.348 8.05616 43.4516C8.80571 44.1426 9.59669 44.7872 10.4248 45.382C10.5534 45.4738 10.6742 45.5752 10.8034 45.6648C11.6793 46.2638 12.5926 46.8061 13.5378 47.2884C13.8123 47.4298 14.0946 47.559 14.373 47.691C15.1863 48.0739 16.02 48.4122 16.8702 48.7043C17.079 48.7756 17.2783 48.8647 17.4899 48.9309C18.5092 49.2426 19.5475 49.4881 20.5985 49.6659C20.9164 49.7216 21.2377 49.7684 21.5595 49.8129C22.6498 49.9704 23.7492 50.0557 24.8507 50.0685C24.893 50.0685 24.9337 50.0752 24.976 50.0752C25.8067 50.0752 26.6269 50.0306 27.4359 49.951C-1.64763 43.015 9.40694 10.4939 27.1987 13.0885Z" fill="#56676E"/>
<path d="M37.3052 26.4922C37.3052 26.4922 43.4377 0.638085 15.833 1.79287C6.57633 5.44933 0.0234375 14.456 0.0234375 25.0111C0.0320455 26.1478 0.117803 27.2825 0.280119 28.4076C6.0897 -0.842985 39.1871 8.63029 37.3052 26.4922Z" fill="#56676E"/>
<path d="M24.0489 37.618C24.0489 37.618 50.015 41.0078 48.3897 16.3201C44.8557 6.81736 35.731 0.0345154 24.9983 0.0345154C23.4785 0.0403884 21.9624 0.184449 20.4688 0.464916C49.4019 4.0167 41.8819 37.8708 24.0489 37.618Z" fill="#56676E"/>
<path d="M32.211 25.0139C32.211 26.3977 31.8006 27.7505 31.0317 28.901C30.2629 30.0516 29.1701 30.9482 27.8916 31.4777C26.6131 32.0071 25.2063 32.1455 23.8492 31.8754C22.492 31.6053 21.2454 30.9388 20.2671 29.9601C19.2887 28.9815 18.6226 27.7347 18.3529 26.3775C18.0832 25.0202 18.2221 23.6134 18.7519 22.3351C19.2818 21.0567 20.1788 19.9643 21.3297 19.1958C22.4804 18.4273 23.8333 18.0174 25.2171 18.0178C27.0722 18.0183 28.8512 18.7556 30.1628 20.0675C31.4744 21.3796 32.2111 23.1588 32.211 25.0139Z" fill="#4E4F50"/>
</g>
<defs>
<clipPath id="clip0_1_1250">
<rect width="50" height="50.1114" fill="white"/>
</clipPath>
</defs>
</svg>

<svg xmlns="http://www.w3.org/2000/svg" width="62.745" height="64" fill="none" viewBox="0 0 50 51"><g clip-path="url(#a)"><path fill="#56676E" d="M49.86 22.72ZM12.809 22.588S5.863 48.18 33.703 48.403c8.735-3.252 15.171-11.224 16.147-20.835a25.81 25.81 0 0 0 .102-2.022c.003-.18.027-.353.027-.533 0-.774-.047-1.537-.116-2.293-7.355 28.955-39.894 17.614-37.054-.132Z"/><path fill="#56676E" d="M27.199 13.088S1.278 5.85 1.676 34.114a25.048 25.048 0 0 0 6.041 9.03c.111.104.227.204.34.308.749.69 1.54 1.335 2.368 1.93.128.092.25.193.378.283.876.599 1.79 1.141 2.735 1.623.274.142.557.271.835.403.813.383 1.647.721 2.497 1.013.209.072.408.16.62.227 1.02.312 2.058.557 3.109.735.317.056.639.102.96.147 1.09.157 2.19.243 3.292.255.042 0 .083.007.125.007.83 0 1.65-.044 2.46-.124-29.084-6.936-18.03-39.457-.237-36.862Z"/><path fill="#56676E" d="M37.305 26.492S43.438.638 15.833 1.792C6.576 5.45.023 14.457.023 25.013c.009 1.136.095 2.27.257 3.396C6.09-.843 39.187 8.63 37.305 26.492Z"/><path fill="#56676E" d="M24.049 37.618s25.966 3.39 24.34-21.298C44.857 6.817 35.732.035 25 .035c-1.52.005-3.037.15-4.53.43 28.933 3.552 21.413 37.406 3.58 37.153Z"/><path fill="#4E4F50" d="M32.211 25.014a6.996 6.996 0 1 1-13.991 0 6.996 6.996 0 0 1 13.991 0Z"/></g><defs><clipPath id="a"><path fill="#fff" d="M0 0h50v50.111H0z"/></clipPath></defs></svg>
